apps/www/public/images/pricing/custom-domain-upgrade-light.svg

<svg width="14" height="15" viewBox="0 0 14 15" fill="none" xmlns="http://www.w3.org/2000/svg">
<path d="M0.548665 7.59922H13.4517M1.69334 3.69304C3.19287 4.43137 5.02363 4.86519 6.9999 4.86519C8.97618 4.86519 10.8069 4.43137 12.3065 3.69304M12.3065 11.5304C10.8069 10.7921 8.97618 10.3583 6.99991 10.3583C5.02363 10.3583 3.19287 10.7921 1.69334 11.5304M9.55163 7.59922C9.55163 11.189 8.40918 14.0991 6.99991 14.0991C5.59063 14.0991 4.44818 11.189 4.44818 7.59922C4.44818 4.00942 5.59063 1.09931 6.99991 1.09931C8.40918 1.09931 9.55163 4.00942 9.55163 7.59922ZM13.4998 7.59903C13.4998 11.1888 10.5897 14.0989 6.99991 14.0989C3.41011 14.0989 0.5 11.1888 0.5 7.59903C0.5 4.00923 3.41011 1.09912 6.99991 1.09912C10.5897 1.09912 13.4998 4.00923 13.4998 7.59903Z" stroke="#11181c"/>
</svg>

<svg xmlns="http://www.w3.org/2000/svg" width="14" height="15" fill="none" viewBox="0 0 14 15"><path stroke="#11181c" d="M.549 7.6h12.903M1.693 3.692c1.5.738 3.33 1.172 5.307 1.172 1.976 0 3.807-.434 5.307-1.172m0 7.837c-1.5-.738-3.33-1.172-5.307-1.172-1.976 0-3.807.434-5.307 1.172M9.552 7.6c0 3.589-1.143 6.5-2.552 6.5s-2.552-2.911-2.552-6.5S5.591 1.1 7 1.1s2.552 2.91 2.552 6.5Zm3.948-.001a6.5 6.5 0 1 1-13 0 6.5 6.5 0 0 1 13 0Z"/></svg>
